src/assets/cards/AC.svg

<svg clip-rule="evenodd" fill-rule="evenodd" stroke-linejoin="round" stroke-miterlimit="2" viewBox="0 0 934 1300" xmlns="http://www.w3.org/2000/svg"><g fill-rule="nonzero"><path d="m33.11 191.903v-11.403h11.09l23.595-121.968h13.423l26.016 121.968h8.945v11.403h-30.483v-11.403h8.229l-3.274-18.691h-30.771l-2.383 18.691h8.241v11.403zm54.907-43.403-13.372-65.293-12.532 65.293z"/><path d="m902.929 1107.23v11.4h-11.089l-23.596 121.97h-13.435l-26.004-121.97h-8.957v-11.4h30.495v11.4h-8.241l3.286 18.7h30.771l2.371-18.7h-8.229v-11.4zm-54.906 43.4 13.372 65.3 12.519-65.3z"/><path d="m437.384 768.595c12-24.067 20.75-48.755 22.292-75.159 1.416-9.712-4.459-9.879-5.375-3.033-16.959 64.967-107.334 47.375-104.25-13.738 2.541-49.562 51.75-60.225 77.458-44.016 10.125 5.966 9.542 2.391 4-3.8-38.125-42.55-15.042-97.342 36.542-98.346 55.75 3.308 70.208 61.958 36 96.454-4.25 4.142-13.667 17.463.5 8.15 34.541-24.533 82.458 1.846 81.458 39.671-1.792 69.746-86.792 74.946-105 16.692-1.75-6.463-6.792-9.705-5.375 1.266 2.5 19.859 7.708 49.804 22.625 75.859z"/><path d="m56.746 313.199c4.967-10.188 9.8-19.671 12.434-30.838 1.75-10.533-1.825-6.616-3.854.284-3.005 9.575-11.342 13.933-19.084 14.037-14.046.192-21.05-10.85-20.616-22.725-1.534-12.492 11.129-21.333 20.675-20.654 7.175.512 13.433 4.387 17.22 7.4 2.484 1.312 5.142 1.892 1.438-1.496-6.992-7.637-12.821-12.35-12.692-23.796.121-10.741 9.304-21.95 21.479-21.596 15.217.438 22.134 12.042 22.1 22.834-.041 7.866-3.975 15.108-10.05 19.596-3.933 3.191-2.829 5.583 1.659 2.562 4.312-3.717 9.446-5.346 14.771-5.458 14.533-.229 20.241 12.337 19.408 24.016-.792 10.938-10.108 22.2-22.383 20.925-10.963-1.254-16.721-10.458-20.021-19.904-1.096-2.896-2.817-3.679-2.771.638 2.533 21.075 10.383 34.187 10.437 34.175z"/><path d="m875.384 987.503c-5 10.187-9.833 19.667-12.458 30.837-1.75 10.53 1.833 6.62 3.875-.29 3-9.57 11.333-13.93 19.083-14.03 14.042-.19 21.042 10.85 20.625 22.72 1.5 12.5-11.167 21.34-20.708 20.65-7.167-.51-13.417-4.38-17.209-7.39-2.5-1.31-5.125-1.9-1.416 1.5 6.958 7.63 12.791 12.35 12.666 23.79-.125 10.74-9.291 21.95-21.458 21.6-15.25-.44-22.167-12.04-22.125-22.84.042-7.87 4-15.11 10.042-19.59 3.958-3.19 2.833-5.59-1.625-2.57-4.334 3.72-9.459 5.35-14.792 5.46-14.542.23-20.208-12.33-19.375-24.01.75-10.95 10.083-22.21 22.375-20.93 10.958 1.26 16.708 10.46 20 19.9 1.083 2.9 2.833 3.68 2.75-.64-2.5-21.07-10.375-34.18-10.417-34.167z"/></g></svg>

<?xml version="1.0" encoding="UTF-8" standalone="no"?>
<!DOCTYPE svg PUBLIC "-//W3C//DTD SVG 1.1//EN" "http://www.w3.org/Graphics/SVG/1.1/DTD/svg11.dtd">
<svg width="100%" height="100%" viewBox="0 0 934 1300" version="1.1" xmlns="http://www.w3.org/2000/svg" xmlns:xlink="http://www.w3.org/1999/xlink" xml:space="preserve" xmlns:serif="http://www.serif.com/" style="fill-rule:evenodd;clip-rule:evenodd;stroke-linejoin:round;stroke-miterlimit:2;">
    <g id="AC">
        <path d="M33.11,191.903L33.11,180.5L44.2,180.5L67.795,58.532L81.218,58.532L107.234,180.5L116.179,180.5L116.179,191.903L85.696,191.903L85.696,180.5L93.925,180.5L90.651,161.809L59.88,161.809L57.497,180.5L65.738,180.5L65.738,191.903L33.11,191.903ZM88.017,148.5L74.645,83.207L62.113,148.5L88.017,148.5Z" style="fill-rule:nonzero;"/>
        <path d="M902.929,1107.23L902.929,1118.63L891.84,1118.63L868.244,1240.6L854.809,1240.6L828.805,1118.63L819.848,1118.63L819.848,1107.23L850.343,1107.23L850.343,1118.63L842.102,1118.63L845.388,1137.33L876.159,1137.33L878.53,1118.63L870.301,1118.63L870.301,1107.23L902.929,1107.23ZM848.023,1150.63L861.395,1215.93L873.914,1150.63L848.023,1150.63Z" style="fill-rule:nonzero;"/>
        <path d="M437.384,768.595C449.384,744.528 458.134,719.84 459.676,693.436C461.092,683.724 455.217,683.557 454.301,690.403C437.342,755.37 346.967,737.778 350.051,676.665C352.592,627.103 401.801,616.44 427.509,632.649C437.634,638.615 437.051,635.04 431.509,628.849C393.384,586.299 416.467,531.507 468.051,530.503C523.801,533.811 538.259,592.461 504.051,626.957C499.801,631.099 490.384,644.42 504.551,635.107C539.092,610.574 587.009,636.953 586.009,674.778C584.217,744.524 499.217,749.724 481.009,691.47C479.259,685.007 474.217,681.765 475.634,692.736C478.134,712.595 483.342,742.54 498.259,768.595L437.384,768.595Z" style="fill-rule:nonzero;"/>
        <path d="M56.746,313.199C61.713,303.011 66.546,293.528 69.18,282.361C70.93,271.828 67.355,275.745 65.326,282.645C62.321,292.22 53.984,296.578 46.242,296.682C32.196,296.874 25.192,285.832 25.626,273.957C24.092,261.465 36.755,252.624 46.301,253.303C53.476,253.815 59.734,257.69 63.521,260.703C66.005,262.015 68.663,262.595 64.959,259.207C57.967,251.57 52.138,246.857 52.267,235.411C52.388,224.67 61.571,213.461 73.746,213.815C88.963,214.253 95.88,225.857 95.846,236.649C95.805,244.515 91.871,251.757 85.796,256.245C81.863,259.436 82.967,261.828 87.455,258.807C91.767,255.09 96.901,253.461 102.226,253.349C116.759,253.12 122.467,265.686 121.634,277.365C120.842,288.303 111.526,299.565 99.251,298.29C88.288,297.036 82.53,287.832 79.23,278.386C78.134,275.49 76.413,274.707 76.459,279.024C78.992,300.099 86.842,313.211 86.896,313.199L56.746,313.199Z" style="fill-rule:nonzero;"/>
        <path d="M875.384,987.503C870.384,997.69 865.551,1007.17 862.926,1018.34C861.176,1028.87 864.759,1024.96 866.801,1018.05C869.801,1008.48 878.134,1004.12 885.884,1004.02C899.926,1003.83 906.926,1014.87 906.509,1026.74C908.009,1039.24 895.342,1048.08 885.801,1047.39C878.634,1046.88 872.384,1043.01 868.592,1040C866.092,1038.69 863.467,1038.1 867.176,1041.5C874.134,1049.13 879.967,1053.85 879.842,1065.29C879.717,1076.03 870.551,1087.24 858.384,1086.89C843.134,1086.45 836.217,1074.85 836.259,1064.05C836.301,1056.18 840.259,1048.94 846.301,1044.46C850.259,1041.27 849.134,1038.87 844.676,1041.89C840.342,1045.61 835.217,1047.24 829.884,1047.35C815.342,1047.58 809.676,1035.02 810.509,1023.34C811.259,1012.39 820.592,1001.13 832.884,1002.41C843.842,1003.67 849.592,1012.87 852.884,1022.31C853.967,1025.21 855.717,1025.99 855.634,1021.67C853.134,1000.6 845.259,987.49 845.217,987.503L875.384,987.503Z" style="fill-rule:nonzero;"/>
    </g>
</svg>
